!!!COM: Mozart
!!!OTL: Zehn Variationen in G, uber die Ariette 'Unser dummer Pobel meint' aus dem Singspiel 'Die Pilgrime von Mekka'
!!!Variation: Variation 10 c2
**function	**harm	**kern	**kern
*	*	*clefF4	*clefG2
*	*	*k[f#]	*k[f#]
*M3/8	*M3/8	*M3/8	*M3/8
*G:	*G:	*G:	*G:
=243	=243	=243	=243
4.T	4.I	16GGLL	8bL 8dd 8gg
.	.	16G	.
.	.	16F#	8gg
.	.	16G	.
.	.	16GG	16bbL
.	.	16GJJ	16ggJJ
=244	=244	=244	=244
4.T	4.Vb	16FF#LL	8ff#L
.	.	16F#	.
.	.	16E	8ff#
.	.	16F#	.
.	.	16FF#	16aaL
.	.	16F#JJ	16ff#JJ
=245	=245	=245	=245
4.T	4.vi	16EELL	8eeL
.	.	16E	.
.	.	16D#	8ee
.	.	16E	.
.	.	16EE	16ggL
.	.	16EJJ	16eeJJ
=246	=246	=246	=246
4.T	4.V7b/vi	4.DD# 4.D#	16bLL
.	.	.	16ff#
.	.	.	16bb
.	.	.	16ff#
.	.	.	16bb
.	.	.	16ff#JJ
=247	=247	=247	=247
4.T	4.vi	8EL	16bLL
.	.	.	16gg
.	.	8E	16bb
.	.	.	16gg
.	.	16GL	16bb
.	.	16EJJ	16ggJJ
=248	=248	=248	=248
4.T	4.viiob/IV	8DL	16bLL
.	.	.	16ff
.	.	8D	16bb
.	.	.	16ff
.	.	16FL	16bb
.	.	16DJJ	16ffJJ
=249	=249	=249	=249
4.P	4.IV	8CL	16ccLL
.	.	.	16ee
.	.	8C	16ccc
.	.	.	16ee
.	.	16EL	16ccc
.	.	16CJJ	16eeJJ
=250	=250	=250	=250
4.P	4.Lt/V	4.BBB- 4.BB-	16ddLL
.	.	.	16gg#
.	.	.	16ddd
.	.	.	16gg#
.	.	.	16ddd
.	.	.	16gg#JJ
=251	=251	=251	=251
4.P	4.V7/V	4.AAA 4.AA	16eeLL
.	.	.	16ggn
.	.	.	16ccc#
.	.	.	16gg
.	.	.	16ccc#
.	.	.	16ggJJ
=252	=252	=252	=252
4.P	4.viioD7/vi	4.DD# 4.D#	16ff#LL
.	.	.	16aa
.	.	.	16cccn
.	.	.	16aa
.	.	.	16ccc
.	.	.	16aaJJ
=253	=253	=253	=253
4.P	4.vi	4.EE 4.E	16bLL
.	.	.	16gg
.	.	.	16bb
.	.	.	16gg
.	.	.	16bb
.	.	.	16ggJJ
=254	=254	=254	=254
4.P	4.ic/vi	16BBLL	16ggLL
.	.	16B	16g
.	.	16A#	16f#
.	.	16B	16g
.	.	16BB	16gg
.	.	16BJJ	16gJJ
=255	=255	=255	=255
4.P	4.ii7b	16CLL	16ggLL
.	.	16c	16a
.	.	16B	16g#
.	.	16c	16a
.	.	16C	16gg
.	.	16cJJ	16aJJ
=256	=256	=256	=256
4.P	4.Ic	16DLL	16ggLL
.	.	16d	16b
.	.	16c#	16a#
.	.	16d	16b
.	.	16D	16gg
.	.	16dJJ	16bJJ
=257	=257	=257	=257
4.P	4.IVb	16ELL	16ggLL
.	.	16e	16cc
.	.	16d#	16b
.	.	16e	16cc
.	.	16E	16gg
.	.	16eJJ	16ccJJ
=258	=258	=258	=258
4.P	4.viioD7c/IV	16FLL	16bbLL
.	.	16f	16dd
.	.	16e	16cc#
.	.	16f	16dd
.	.	16F	16bb
.	.	16fJJ	16ddJJ
=259	=259	=259	=259
4.P	4.IVb	16ELL	16cccLL
.	.	16e	16gg
.	.	16d#	16ff#
.	.	16e	16gg
.	.	16E	16ccc
.	.	16eJJ	16ggJJ
=260	=260	=260	=260
4.P	4.Lt	16E-LL	16ccc#LL
.	.	16e-	16gg
.	.	16d	16ff#
.	.	16e-	16gg
.	.	16E-	16ccc#
.	.	16e-JJ	16ggJJ
=261	=261	=261	=261
4.D	4.Cc	4.D; 4.G; 4.B; 4.d;	4.dd; 4.gg; 4.bb; 4.ddd;
*-	*-	*-	*-
